X: 606
T: The Cry of Israel
T: A Good Night
O: German Goldenshteyn v.1#2
R: waltz
Q: 1/4=51
M: 3/4
L: 1/8
K: E exp ^G
|: (E2 | "E"G4) (E2 \
| G4) E2 | "Dm"{=G}F2 E2 ({E}DF) \
| "E"E4- EE | E2 F2 (GA) \
| B2 {d}c2 BA 
| "E"B{d}c B{d}c B{d}c | B4 E2 \
| "Am"c3 B {d}(3cBA | "E"G3 EGB \
| "Dm"{B}AG {B}AG ({B}A/G/F/E/) | D4 D2 
| "Dm"B3 AG{B}A | G2 F2 {G}(3FED \
| "E"E{=G}F E{G}F E{G}F | E4 :: E2 \
| "Am"E2 A2 c2 | e3 ^d{^f}ed 
| e3 ^d {^f}e/d/c/B/ | A4 E2 \
| c3 BAc | "E"B3 EGB \
| "Am"A3 E"(E)"cB | "Am"A4 E2 \
| c3 B (3(cB)A 
| "E"G3 EGB | "Dm"A2  G2 FE \
| D4 D2 | B3 AGA \
| G3 F (3{G}FED | "E"E{=G}F E{G}F E{G}F \
| E4 :|



